X: 042159
T: Daylight
C: Joe Liddy
S: "The Leitrim Fiddler" (Dublin 1981)
Z: BB
L: 1/8
M: 4/4
R: reel
Q: 1/4 = 170
K: Ador
ed | cecA BdBG | AcBA GE D2 | EAAG ABcd | edcB AGEG |
cecA BdBG | AcBA GEDE | cBAG EDEG | AcBG A2 :|
AB | c2 cd ecgc | aege dcAB | c2 cd eceg | abag ed d2 |
ecgc aceg | aged cAGA | cBAG EDEG | AcBG A2 ||
AB | c2 cd eceg | aege dcAG | ABcB cded | eaag a2 ab |
aged cAcd | edcB AGEB | cBAG EDEG | AcBG A4 ||
